applenews.svg

<svg viewBox="0 0 24 24" xmlns="http://www.w3.org/2000/svg"><defs><linearGradient gradientTransform="matrix(0.483793 0 0 0.483793 -7.19648 -7.19648)" gradientUnits="userSpaceOnUse" id="LinearGradient" x1="39.6791" x2="39.6791" y1="64.4831" y2="14.8752"><stop offset="0" stop-color="#fd3159"/><stop offset="1" stop-color="#fd5464"/></linearGradient></defs><path d="M-2.66454e-15 13.4537L-2.66454e-15 20.7335L3.38655e-05 21.7293C3.38655e-05 21.816-2.66454e-15 21.9027 0.0005612 21.9894C0.000943397 22.0624 0.00179487 22.1354 0.00374456 22.2084C0.00806483 22.3675 0.0174553 22.528 0.0457281 22.6853C0.0744025 22.8449 0.121185 22.9935 0.194978 23.1384C0.267552 23.281 0.362259 23.4114 0.475298 23.5245C0.588307 23.6375 0.71866 23.7323 0.861123 23.8049C1.00613 23.8787 1.15471 23.9256 1.31435 23.9543C1.47152 23.9826 1.63189 23.9919 1.79085 23.9962C1.86385 23.9982 1.93684 23.999 2.00985 23.9995C2.09645 24 2.18311 24 2.2698 24L3.26522 24L10.5463 24C10.7556 24 10.8239 23.7187 10.6377 23.6232C6.18967 21.3414 2.65858 17.8103 0.37684 13.3623C0.338471 13.2875 0.270106 13.2537 0.202027 13.2537C0.100673 13.2537-2.66454e-15 13.3285-2.66454e-15 13.4537M2.27458 1.73644e-05C2.18771 1.73644e-05 2.10088 5.12299e-05 2.01403 0.000544699C1.94091 0.000960761 1.86776 0.00185578 1.79464 0.00382482C1.63528 0.00814509 1.47448 0.0175065 1.31691 0.0458229C1.15706 0.0746231 1.00824 0.121425 0.86301 0.195296C0.720208 0.268015 0.589555 0.362882 0.476275 0.476128C0.363043 0.589374 0.268065 0.719935 0.195457 0.862577C0.121442 1.0079 0.0745285 1.15674 0.0457767 1.31658C0.0174748 1.4741 0.00809889 1.63474 0.00374476 1.79397C0.00180958 1.86704 0.000943594 1.94015 0.000561398 2.01325C3.40631e-05 2.0865 1.97574e-07 2.15978 1.97574e-07 2.23301L1.97574e-07 2.27368L1.97574e-07 5.27114C1.97574e-07 5.88286 0.11896 6.19955 0.572434 6.65309L17.3469 23.4275C17.8062 23.8868 18.1185 24 18.7289 24L21.7254 24C21.8122 24 21.8991 24 21.986 23.9994C22.0591 23.999 22.1322 23.9982 22.2054 23.9961C22.3648 23.9919 22.5255 23.9825 22.6831 23.9542C22.843 23.9254 22.9918 23.8786 23.137 23.8047C23.2798 23.732 23.4104 23.6371 23.5237 23.5239C23.637 23.4106 23.7319 23.2801 23.8046 23.1374C23.8786 22.9921 23.9255 22.8433 23.9543 22.6834C23.9826 22.526 23.992 22.3653 23.9962 22.206C23.9982 22.133 23.9991 22.0599 23.9995 21.9867C24 21.9131 24 21.8394 24 21.7658L24 18.7289C24 18.1171 23.8811 17.8004 23.4276 17.3469L6.65309 0.57246C6.19387 0.113258 5.88147 4.60277e-05 5.27112 1.21739e-05L2.27458 1.21739e-05M13.4537 1.73644e-05C13.2444 1.73644e-05 13.1761 0.281343 13.3622 0.376849C17.8104 2.65858 21.3414 6.18965 23.6231 10.6377C23.7187 10.824 24 10.7556 24 10.5463L24 3.2665L23.9999 2.27069C23.9999 2.18403 24 2.0973 23.9995 2.01061C23.9991 1.93757 23.9982 1.86458 23.9962 1.79159C23.9919 1.63246 23.9826 1.47201 23.9543 1.3147C23.9256 1.15508 23.8788 1.00653 23.805 0.861561C23.7325 0.718987 23.6377 0.588586 23.5247 0.475528C23.4116 0.362456 23.2814 0.267686 23.1389 0.195126C22.9939 0.121256 22.8453 0.0744247 22.6857 0.0457503C22.5285 0.0174629 22.3681 0.00808703 22.2092 0.00376676C22.1362 0.00186061 22.0632 0.000965594 21.9902 0.000549532C21.9035 2.21973e-05 21.8168 5.12249e-05 21.7302 5.12249e-05L20.7348 1.73594e-05L13.4537 1.73594e-05" fill="url(#LinearGradient)"/></svg>

<svg viewBox="0 0 24 24" xmlns="http://www.w3.org/2000/svg"><defs><linearGradient gradientTransform="matrix(.4838 0 0 .4838 -7.196 -7.196)" gradientUnits="userSpaceOnUse" id="a" x1="39.679" x2="39.679" y1="64.483" y2="14.875"><stop offset="0" stop-color="#fd3159"/><stop offset="1" stop-color="#fd5464"/></linearGradient></defs><path d="M0 13.454v8.535c0 .073.002.146.004.22.004.159.013.319.042.476a1.525 1.525 0 0 0 1.269 1.269c.157.029.317.038.476.042L2.01 24h8.536c.21 0 .278-.281.092-.377A23.486 23.486 0 0 1 .377 13.363a.193.193 0 0 0-.175-.11.198.198 0 0 0-.202.2M2.275 0a45.853 45.853 0 0 0-.48.004 3.19 3.19 0 0 0-.478.042 1.528 1.528 0 0 0-1.271 1.27 3.194 3.194 0 0 0-.042.478A10.321 10.321 0 0 0 0 2.233V5.271c0 .612.119.929.572 1.382l16.775 16.774c.46.46.771.573 1.382.573h3.257l.22-.004c.159-.004.32-.013.477-.042a1.529 1.529 0 0 0 1.271-1.27c.029-.158.038-.319.042-.478l.004-.22V18.73c0-.612-.119-.929-.572-1.382L6.653.572C6.193.113 5.881 0 5.271 0H2.275m11.179 0c-.21 0-.278.281-.092.377a23.484 23.484 0 0 1 10.261 10.26c.096.187.377.119.377-.09V2.01c0-.073-.002-.146-.004-.22a3.179 3.179 0 0 0-.042-.476A1.523 1.523 0 0 0 22.685.046a3.18 3.18 0 0 0-.476-.042A10.733 10.733 0 0 0 21.99 0h-.26L20.735 0h-7.281" fill="url(#a)"/></svg>
